X: 181799
T: Round the World
T: M\'orthimpeall an Domhain
S: B.Breathnach:"Ceol Rince na hEireann" IV/187
Z: B.Black
L: 1/8
M: 4/4
R: reel
K: Edor
BE (3EEE BAFA|BE (3EEE BEdE|BE (3EEE BAFB|AFDF (3ABA FA|
BE (3EEE BAFA|BE (3EEE BcdA|BE (3EEE BAFB|AFDF ABAF ||
EDEF DEFD|E2 EB B2 AF|EDEF (3DED DB|AFDF ABAF|
EDEF DEFD|E2 EB B2 AF|EDEF DEFB|AFDF A2 FA ||
Bcde dcBA|Bcde fgaf|d3d dcde|faec dcBA|
Bcde dcBA|Bcde fgaf|d3d dfag|1 fgec dcBA :|2 fgec d3 z ||
